packages/kaspersky-hexa-ui-icons/src/iconsSVGs/16/NotInstalled.svg

<svg width="16" height="16" viewBox="0 0 16 16" fill="none" xmlns="http://www.w3.org/2000/svg">
<path d="M1.65 4.3125C1.65 3.56692 2.25442 2.9625 3 2.9625H13C13.7456 2.9625 14.35 3.56692 14.35 4.3125V11.6875C14.35 12.4331 13.7456 13.0375 13 13.0375H3C2.25442 13.0375 1.65 12.4331 1.65 11.6875V4.3125ZM7.2543 5.41582C6.74662 4.90814 5.9235 4.90814 5.41582 5.41582C4.90814 5.9235 4.90814 6.74662 5.41582 7.2543L6.16162 8.0001L5.41594 8.74578C4.90826 9.25346 4.90826 10.0766 5.41594 10.5843C5.92362 11.0919 6.74674 11.0919 7.25442 10.5843L8.0001 9.83857L8.74578 10.5843C9.25346 11.0919 10.0766 11.0919 10.5843 10.5843C11.0919 10.0766 11.0919 9.25346 10.5843 8.74578L9.83858 8.0001L10.5844 7.2543C11.0921 6.74662 11.0921 5.9235 10.5844 5.41582C10.0767 4.90814 9.25358 4.90814 8.7459 5.41582L8.0001 6.16162L7.2543 5.41582Z" fill="black" stroke="black" stroke-width="1.3"/>
</svg>

<svg xmlns="http://www.w3.org/2000/svg" width="16" height="16" fill="none" viewBox="0 0 16 16"><path fill="#000" stroke="#000" d="M1.65 4.3125c0-.7456.6044-1.35 1.35-1.35h10c.7456 0 1.35.6044 1.35 1.35v7.375c0 .7456-.6044 1.35-1.35 1.35H3c-.7456 0-1.35-.6044-1.35-1.35zm5.6043 1.1033c-.5077-.5077-1.3308-.5077-1.8385 0s-.5077 1.3308 0 1.8385l.7458.7458-.7457.7457c-.5076.5077-.5076 1.3308 0 1.8385s1.3308.5076 1.8385 0l.7457-.7457.7457.7457c.5077.5076 1.3308.5076 1.8385 0s.5076-1.3308 0-1.8385L9.8386 8l.7458-.7458c.5077-.5077.5077-1.3308 0-1.8385s-1.3308-.5077-1.8385 0l-.7458.7458z"/></svg>
